!!!!SEGMENT:08Hakkenden_c.krn
!!!OTL: 八犬傅
!!!OPR:Eiga Banso Kyokusyu,jidai-geki,zenpen
!!!YOY:1929
!!!ONB:Kenka
**kern
*clefG2
*C:
*M2/4
=1
!LO:TX:a:B:t=Allegro
8dL
16eL
16eJJ
8BL
16aaL
16aaJJ
=2
16bbLL
16bb
16aa
16aaJJ
16bbLL
16bb
16aa
16aaJJ
=3
8bbL
8ff#J
8ff#L
8aaJ
=4
8bbL
8ff#J
8ff#L
8aaJ
=5
8bbL
8aaJ
8bbL
16bbL
16bbJJ
=6
8bbL
16BL
16eJJ
8eL
8cJ
=7
8BL
8c#XJ
8eL
8f#J
=8
8aL
8bJ
8cc#XL
8eeJ
=9
8ff#L
8gg#XJ
8ff#L
8cc#XJ
=10
8ff#L
8gg#XJ
4ff#
=11
8aaL
8aaJ
8bbL
16bbL
16bbJJ
=12
8bbL
8cccJ
8eeeL
16cccL
16cccJJ
=13
8bbL
8cccJ
16aaLL
16aa
16bb
16aaJJ
=14
8ffnL
8aaJ
16eeLL
16eeJ
8eeJ
=15
8eeL
8ee
8ee
8eeJ
=16
8r
8ff#
8ff#L
8ccJ
=17
8eeL
8cc
8b
8gJ
=18
8f#L
8eJ
8f#L
8aJ
=19
8bL
8eeJ
16ff#LL
16ff#J
8ff#J
=20
16eeLL
16eeJ
8eeJ
8bL
16bL
16bJJ
=21
8bL
8ccJ
16bLL
16b
16f#
16gJJ
=22
8f#L
16BL
16aJJ
8bL
8bJ
=23
8eL
16ddL
16ddJJ
16eLL
16dd
16e
16ddJJ
=24
8eL
8eeJ
4r
==
*-
!!!ENC: Yukiko Yoden
!!!END: 2023/06/11
